X: 1
T: The Highlandman Kissed His Mother
R: reel
B: Lowe's II
Z: John Chambers <jc:trillian.mit.edu>
M: C|
L: 1/8
K: C
|: B | "C" cgge    gcge | cgge "G"dBGB | "C" cgge    gcge | "Dm"afge "G"dBG :|
|: B | "Am"c{d}eAe ceAe | ceAe "G"dBGB | "Am"c{d}eAe ceAg | "Dm"afge "G"dBG :|
